actions/32/view-list-details.svg

<svg xmlns="http://www.w3.org/2000/svg" viewBox="0 0 32 32">
  <defs
     id="defs3051">
<style type="text/css" id="current-color-scheme">.ColorScheme-Text {color:#fcfcfc;}</style>
  </defs>
  <path
     style="fill:currentColor;fill-opacity:1;stroke:none" 
     d="m 4,8 c 0,4 0,6 0,6 H 14 V 4 H 8 C 8,4 4,4 4,8 Z M 5,8 C 5,5 8,5 8,5 h 5 v 8 H 5 C 5,13 5,11 5,8 Z M 16,6 V 7 H 28 V 6 Z m 0,5 v 1 H 28 V 11 Z M 4,18 c 0,0 0,2 0,6 0,4 4,4 4,4 l 6,0 V 18 Z m 12,2 v 1 h 8 v -1 z m 0,5 v 1 h 8 v -1 z"
     id="path59" 
     class="ColorScheme-Text"
     />
</svg>

<svg xmlns="http://www.w3.org/2000/svg" viewBox="0 0 32 32">
  <defs
     id="defs3051">
    <style
       type="text/css"
       id="current-color-scheme">
      .ColorScheme-Text {
        color:#eff0f1;
      }
      </style>
  </defs>
  <path
     style="fill:currentColor;fill-opacity:1;stroke:none" 
     d="M 4 4 L 4 14 L 14 14 L 14 4 L 4 4 z M 5 5 L 13 5 L 13 13 L 5 13 L 5 5 z M 16 6 L 16 7 L 28 7 L 28 6 L 16 6 z M 16 11 L 16 12 L 28 12 L 28 11 L 16 11 z M 4 18 L 4 28 L 14 28 L 14 18 L 4 18 z M 16 20 L 16 21 L 24 21 L 24 20 L 16 20 z M 16 25 L 16 26 L 24 26 L 24 25 L 16 25 z "
     id="path59" 
     class="ColorScheme-Text"
     />
</svg>
